X:1
T:Title
%%score { ( 1 4 ) | ( 2 3 ) }
L:1/8
M:6/8
K:C
V:1 treble nm="Grand Piano"
V:4 treble 
V:2 bass 
V:3 bass 
V:1
 z3 z2[Q:1/4=100] [CE]/[DF]/ | [EG]2 [EG] [EG][CE][DF] | [EG]2 [Ec] [EG]3 | GBB BAG | %4
[M:5/8] [EG][Ec]- [Ec]3 |[M:1/8] [CE]/[DF]/ |[M:3/4] [EG]2 [EG][EG] [CE][DF] | [EG]2 [Ec] [EG]3 | %8
 GB BB A[FB] |[M:2/4] [Fd] [Ec]3 |[M:1/4] GG |[M:3/4] d4 z2 | e6 | cc cd cA | %14
[M:5/8] [FA][EG]- [EG]3 |[M:1/8] [CE]/[DF]/ |[M:3/4] [EG]2 [EG][Ge] [Ec][EG] | [G_B]2 [GB] A3 | %18
 GB BB A[FB] |[M:5/8] [Fd][Ec]- [Ec]3 |] %20
V:2
 z3 z2 [C,G,]/[C,G,]/ | [C,C]2 [C,C] [C,C][C,G,][C,G,] | [C,C]2 [C,C] [C,C]3 | z3 .D3 | %4
[M:5/8][K:bass] [C,C][C,G,]- [C,G,]3 |[M:1/8] [C,G,]/[C,G,]/ | %6
[M:3/4] [C,C]2 [C,C][C,C] [C,G,][C,G,] | [C,C]2 [C,C] [C,C]3 | %8
 [G,B,F][G,DF] [G,DF] [G,DF]2[K:bass] [G,,G,] |[M:2/4] [C,G,] [C,G,]3 |[M:1/4] z2 | %11
[M:3/4][K:treble] F4 z2 | G6[K:bass] | [F,A,F][F,A,F] [F,A,F] [F,A,F]2 [F,CF] | %14
[M:5/8] [C,C][C,C]- [C,C]3 |[M:1/8] [C,G,]/[C,G,]/ |[M:3/4] [C,C]2 [C,C][C,C] [C,G,][C,C] | %17
 [E,C]2 [E,C][K:treble] [F,CF]3 | [G,B,F][G,DF] [F,DF] [G,DF]2[K:bass] [G,,G,] | %19
[M:5/8] [C,G,][C,G,]- [C,G,]3 |] %20
V:3
 x6 | x6 | x6 | [G,B,D][G,DF][G,DF] [G,F]-[G,CF][G,B,F] |[M:5/8][K:bass] x5 |[M:1/8] x | %6
[M:3/4] x6 | x6 | x5[K:bass] x |[M:2/4] x4 |[M:1/4] x2 |[M:3/4][K:treble] z G, G,G, z2 | %12
 z[K:bass] C, C, .C,3 | x6 |[M:5/8] x5 |[M:1/8] x |[M:3/4] x6 | x3[K:treble] x3 | x5[K:bass] x | %19
[M:5/8] x5 |] %20
V:4
 x6 | x6 | x6 | x6 |[M:5/8] x5 |[M:1/8] x |[M:3/4] x6 | x6 | x6 |[M:2/4] x4 |[M:1/4] x2 | %11
[M:3/4] z B, B,B, GG | z C C .C3 | x6 |[M:5/8] x5 |[M:1/8] x |[M:3/4] x6 | x6 | x6 |[M:5/8] x5 |] %20

